X: 20342
M: 3/4
L: 1/8
K: C
c2e2G2 | e2a2G2 | d2f2G2 | B2d2G2 |\
c2e2G2 | e2g2G2 | d2fdBd | c4 ::\
e2 |\
f2d2d2 | gec2c2 | f2d2d2 | g4G2 |
c2e2G2 | e2g2G2 | d2fdBd | c4 ::\
ceGcec | egGege | dfGdfd | BdGBdB |\
ceGcec | egGege |
dfGdfd | c4 ::\
e2 |\
gfgfdf | gfgfce | gfgfdf | gfgfcG |\
ceGcec | egGege | dfGdfd | c4 :|


